svg/fluentui-system-icons/ic_fluent_code_16_regular.svg

<svg width="16" height="16" viewBox="0 0 16 16" fill="none" xmlns="http://www.w3.org/2000/svg">
<path d="M9.80307 3.04322C10.0554 3.15537 10.1691 3.45085 10.0569 3.70319L6.05691 12.7032C5.94475 12.9555 5.64927 13.0692 5.39693 12.957C5.14459 12.8449 5.03094 12.5494 5.14309 12.2971L9.14309 3.29706C9.25525 3.04471 9.55073 2.93107 9.80307 3.04322ZM4.33218 5.37642C4.53857 5.55988 4.55716 5.87592 4.3737 6.08231L2.66898 8.00012L4.3737 9.91794C4.55716 10.1243 4.53857 10.4404 4.33218 10.6238C4.12579 10.8073 3.80975 10.7887 3.6263 10.5823L1.6263 8.33231C1.4579 8.14286 1.4579 7.85739 1.6263 7.66794L3.6263 5.41794C3.80975 5.21155 4.12579 5.19296 4.33218 5.37642ZM11.6678 5.37642C11.8742 5.19296 12.1902 5.21155 12.3737 5.41794L14.3737 7.66794C14.5421 7.85739 14.5421 8.14286 14.3737 8.33231L12.3737 10.5823C12.1902 10.7887 11.8742 10.8073 11.6678 10.6238C11.4614 10.4404 11.4428 10.1243 11.6263 9.91794L13.331 8.00012L11.6263 6.08231C11.4428 5.87592 11.4614 5.55988 11.6678 5.37642Z" fill="#212121"/>
</svg>

<svg xmlns="http://www.w3.org/2000/svg" width="16" height="16"><path d="M9.803 3.043a.5.5 0 0 1 .254.66l-4 9a.5.5 0 0 1-.914-.406l4-9a.5.5 0 0 1 .66-.254Zm-5.47 2.333a.5.5 0 0 1 .04.706L2.67 8l1.705 1.918a.5.5 0 1 1-.748.664l-2-2.25a.5.5 0 0 1 0-.664l2-2.25a.5.5 0 0 1 .706-.042Zm7.335 0a.5.5 0 0 1 .706.042l2 2.25a.5.5 0 0 1 0 .664l-2 2.25a.5.5 0 1 1-.748-.664L13.331 8l-1.705-1.918a.5.5 0 0 1 .042-.706Z"/></svg>
